src/assets/icons/Forms/import.svg

<svg height="24" viewBox="0 0 24 24" width="24" xmlns="http://www.w3.org/2000/svg" xmlns:xlink="http://www.w3.org/1999/xlink"><clipPath id="a"><path d="m0 0h24v24h-24z"/></clipPath><path clip-path="url(#a)" d="m20.55 5.22-1.39-1.68c-.28-.33-.69-.54-1.16-.54h-12c-.47 0-.88.21-1.15.55l-1.39 1.67c-.29.35-.46.79-.46 1.28v12.5c0 1.1.89 2 2 2h14c1.1 0 2-.9 2-2v-12.5c0-.49-.17-.93-.45-1.28zm-8.55 4.28 5.5 5.5h-3.5v2h-4v-2h-3.5zm-6.88-4.5.82-1h12l.93 1z"/></svg>

<svg xmlns="http://www.w3.org/2000/svg" xmlns:xlink="http://www.w3.org/1999/xlink" width="24" height="24" viewBox="0 0 24 24">
    <defs>
        <path id="a" d="M0 0h24v24H0V0z"/>
    </defs>
    <clipPath id="b">
        <use xlink:href="#a" overflow="visible"/>
    </clipPath>
    <path clip-path="url(#b)" d="M20.55 5.22l-1.39-1.68C18.88 3.21 18.47 3 18 3H6c-.47 0-.88.21-1.15.55L3.46 5.22C3.17 5.57 3 6.01 3 6.5V19c0 1.1.89 2 2 2h14c1.1 0 2-.9 2-2V6.5c0-.49-.17-.93-.45-1.28zM12 9.5l5.5 5.5H14v2h-4v-2H6.5L12 9.5zM5.12 5l.82-1h12l.93 1H5.12z"/>
</svg>
